evolvere-2-blue/apps/64/ibus.svg

<?xml version="1.0" encoding="UTF-8"?>
<!-- Created with Inkscape (http://www.inkscape.org/) -->
<svg width="64" height="64" version="1.1" xmlns="http://www.w3.org/2000/svg" xmlns:cc="http://creativecommons.org/ns#" xmlns:dc="http://purl.org/dc/elements/1.1/" xmlns:rdf="http://www.w3.org/1999/02/22-rdf-syntax-ns#" xmlns:xlink="http://www.w3.org/1999/xlink">
	<defs>
		<linearGradient id="linearGradient23203" x1="32.712" x2="32.712" y1="10" y2="7.0266" gradientUnits="userSpaceOnUse">
			<stop stop-color="#93e4ff" stop-opacity=".74141" offset="0"/>
			<stop stop-color="#98e3ff" stop-opacity=".58279" offset="1"/>
		</linearGradient>
		<radialGradient id="radialGradient58" cx="31.821" cy="13.638" r="25" gradientTransform="matrix(1.6473,0,0,1.5814,-20.599,-7.1152)" gradientUnits="userSpaceOnUse">
			<stop stop-color="#4d77ce" offset="0"/>
			<stop stop-color="#3981d6" offset="1"/>
		</radialGradient>
		<linearGradient id="linearGradient20088" x1="32.712" x2="32.712" y1="3" y2="64" gradientUnits="userSpaceOnUse">
			<stop stop-color="#a6f2ff" stop-opacity=".17611" offset="0"/>
			<stop stop-color="#a6f2ff" stop-opacity=".054943" offset="1"/>
		</linearGradient>
	</defs>
	<metadata>
		<rdf:RDF>
			<cc:Work rdf:about="">
				<dc:format>image/svg+xml</dc:format>
				<dc:type rdf:resource="http://purl.org/dc/dcmitype/StillImage"/>
			</cc:Work>
		</rdf:RDF>
	</metadata>
	<path d="m1.6362e-8 1-1.6362e-8 33v28l2 2h60l2-2v-61l-2-1h-60z" color="#000000" fill="#4182d9" stop-color="#000000" style="-inkscape-stroke:none;font-variation-settings:normal;paint-order:stroke fill markers"/>
	<path d="m7 56v-44l2-2h46l2 2v44l-2 2h-46z" color="#000000" fill="url(#radialGradient58)"/>
	<path d="m2 0-2 1 7 11 2-2h46l2 2 7-11-2-1z" color="#000000" fill="url(#linearGradient23203)"/>
	<path d="m0 1 1.6362e-8 61 7-6v-44z" color="#000000" fill="url(#linearGradient20088)" stop-color="#000000" style="-inkscape-stroke:none;font-variation-settings:normal"/>
	<path d="m64 1v61l-7-6v-44z" color="#000000" fill="url(#linearGradient20088)" stop-color="#000000" style="-inkscape-stroke:none;font-variation-settings:normal"/>
	<g>
		<path d="m64 62-2 2h-60l-2-2 7-6 2 2h46l2-2z" color="#000000" fill="#333c51" fill-opacity=".46029"/>
		<path d="m64 62-2 2-7-6 2-2z" color="#000000" fill="#3d7fce"/>
		<path d="m2 64-2-2 7-6 2 2z" color="#000000" fill="#3d7fce" stop-color="#000000" style="-inkscape-stroke:none;font-variation-settings:normal"/>
		<path d="m2 0-2 1 7 11 2-2z" color="#000000" fill="#8bd2ff" fill-opacity=".66723"/>
		<path d="m62 0 2 1-7 11-2-2z" color="#000000" fill="#8bd2ff" fill-opacity=".66723" stop-color="#000000" style="-inkscape-stroke:none;font-variation-settings:normal"/>
	</g>
	<path d="m32.5 20c-1.3807 0-2.5 1.1193-2.5 2.5s1.1193 2.5 2.5 2.5 2.5-1.1193 2.5-2.5-1.1193-2.5-2.5-2.5zm-5.5 8v2h3v12h-3v2h11v-2h-3v-14h-5z" color="#000000" fill="#d2eaea"/>
</svg>

<?xml version="1.0" encoding="UTF-8" standalone="no"?>
<!-- Created with Inkscape (http://www.inkscape.org/) -->

<svg
   xmlns:dc="http://purl.org/dc/elements/1.1/"
   xmlns:cc="http://creativecommons.org/ns#"
   xmlns:rdf="http://www.w3.org/1999/02/22-rdf-syntax-ns#"
   xmlns:svg="http://www.w3.org/2000/svg"
   xmlns="http://www.w3.org/2000/svg"
   xmlns:sodipodi="http://sodipodi.sourceforge.net/DTD/sodipodi-0.dtd"
   xmlns:inkscape="http://www.inkscape.org/namespaces/inkscape"
   width="64"
   height="64"
   id="svg13094"
   version="1.1"
   inkscape:version="0.48.4 r9939"
   sodipodi:docname="ibus.svg">
  <sodipodi:namedview
     id="base"
     pagecolor="#ffffff"
     bordercolor="#666666"
     borderopacity="1.0"
     inkscape:pageopacity="0"
     inkscape:pageshadow="2"
     inkscape:zoom="11.313709"
     inkscape:cx="43.160251"
     inkscape:cy="31.944712"
     inkscape:document-units="px"
     inkscape:current-layer="svg13094"
     showgrid="true"
     inkscape:snap-bbox="true"
     inkscape:bbox-paths="true"
     inkscape:bbox-nodes="true"
     inkscape:snap-bbox-edge-midpoints="true"
     inkscape:snap-bbox-midpoints="true"
     inkscape:object-paths="true"
     inkscape:snap-intersection-paths="true"
     inkscape:object-nodes="true"
     inkscape:snap-smooth-nodes="true"
     inkscape:snap-midpoints="true"
     inkscape:snap-object-midpoints="true"
     inkscape:snap-center="true"
     showguides="false"
     inkscape:guide-bbox="true"
     inkscape:window-width="1920"
     inkscape:window-height="1025"
     inkscape:window-x="-2"
     inkscape:window-y="32"
     inkscape:window-maximized="1"
     inkscape:snap-global="true"
     fit-margin-top="0"
     fit-margin-left="0"
     fit-margin-right="0"
     fit-margin-bottom="0"
     showborder="true"
     inkscape:showpageshadow="false"
     inkscape:snap-page="true">
    <inkscape:grid
       type="xygrid"
       id="grid3075"
       empspacing="5"
       visible="true"
       enabled="true"
       snapvisiblegridlinesonly="true"
       originx="1.6362304e-08px"
       originy="18px" />
    <sodipodi:guide
       orientation="0,1"
       position="-11,30"
       id="guide9148" />
    <sodipodi:guide
       orientation="1,0"
       position="32,70"
       id="guide9150" />
  </sodipodi:namedview>
  <defs
     id="defs13096" />
  <metadata
     id="metadata13099">
    <rdf:RDF>
      <cc:Work
         rdf:about="">
        <dc:format>image/svg+xml</dc:format>
        <dc:type
           rdf:resource="http://purl.org/dc/dcmitype/StillImage" />
        <dc:title />
      </cc:Work>
    </rdf:RDF>
  </metadata>
  <path
     sodipodi:nodetypes="cccccccccccc"
     id="path3813"
     d="M 1.6362304e-8,1 5,33 0,62 2,64 32,60 62,64 64,62 59,33 64,1 62,0 C 43.132981,9.5494073 23.199957,10.11392 2,0 z"
     style="color:#000000;fill:#2370d6;fill-opacity:1;fill-rule:nonzero;stroke:none;stroke-width:2.28571415000000000;marker:none;visibility:visible;display:inline;overflow:visible;enable-background:accumulate"
     inkscape:connector-curvature="0" />
  <g
     id="g3043-3"
     inkscape:export-filename="folder.png"
     inkscape:export-xdpi="90"
     inkscape:export-ydpi="90"
     transform="translate(-0.62500009,0.082283)" />
  <g
     id="scalable-2"
     transform="matrix(1.0385892,0,0,1.0385892,1214.7222,1878.8121)"
     inkscape:label="#g3701"
     style="fill:#ffffff" />
  <path
     style="color:#000000;display:inline;overflow:visible;visibility:visible;fill:#62b1ff;fill-opacity:1;fill-rule:nonzero;stroke:none;marker:none;enable-background:accumulate"
     d="M 2,0 0,1 7,12 9,10 55,10 57,12 64,1 62,0 Z"
     id="path3811-0"
     inkscape:connector-curvature="0"
     sodipodi:nodetypes="ccccccccc" />
  <path
     sodipodi:nodetypes="ccccc"
     inkscape:connector-curvature="0"
     id="path3025-9"
     d="M 0,1 1.6362304e-8,62 7,56 7,12 Z"
     style="color:#000000;display:inline;overflow:visible;visibility:visible;fill:#4a95fa;fill-opacity:1;fill-rule:nonzero;stroke:none;marker:none;enable-background:accumulate" />
  <path
     sodipodi:nodetypes="ccccc"
     inkscape:connector-curvature="0"
     id="path3819-4"
     d="m 64,1 0,61 -7,-6 0,-44 z"
     style="color:#000000;display:inline;overflow:visible;visibility:visible;fill:#2063c0;fill-opacity:1;fill-rule:nonzero;stroke:none;marker:none;enable-background:accumulate" />
  <path
     sodipodi:nodetypes="ccccccccc"
     inkscape:connector-curvature="0"
     id="path3821-0"
     d="M 64,62 62,64 2,64 1.6362304e-8,62 7,56 l 2,2 46,0 2,-2 z"
     style="color:#000000;display:inline;overflow:visible;visibility:visible;fill:#2063c0;fill-opacity:1;fill-rule:nonzero;stroke:none;marker:none;enable-background:accumulate" />
  <g
     id="g3043"
     inkscape:export-filename="folder.png"
     inkscape:export-xdpi="90"
     inkscape:export-ydpi="90"
     transform="translate(-0.62500009,0.082283)" />
  <g
     id="scalable"
     transform="matrix(1.0385892,0,0,1.0385892,1214.7222,1878.8121)"
     inkscape:label="#g3701"
     style="fill:#ffffff" />
  <path
     style="color:#000000;fill:#dce6ff;fill-opacity:1;fill-rule:nonzero;stroke:none;stroke-width:2;marker:none;visibility:visible;display:inline;overflow:visible;enable-background:accumulate"
     d="M 32.5,20 C 31.119288,20 30,21.119288 30,22.5 30,23.880712 31.119288,25 32.5,25 33.880712,25 35,23.880712 35,22.5 35,21.119288 33.880712,20 32.5,20 z m -5.5,8 0,2 3,0 0,12 -3,0 0,2 11,0 0,-2 -3,0 0,-12 0,-2 -5,0 z"
     id="rect3827"
     inkscape:connector-curvature="0"
     sodipodi:nodetypes="sssssccccccccccccc" />
</svg>
